X:1
T:Crown Him
T:Crown Him
T:Lelia Naylor Morris
T:Lelia Naylor Morris, 1914
T:Public Domain Courtesy of the Cyber Hymnal™
T:Public Domain Courtesy of the Cyber Hymnal™
C:Lelia Naylor Morris
Z:Public Domain
Z:Courtesy of the Cyber Hymnal™
%%score ( 1 2 ) ( 3 4 )
L:1/8
Q:1/4=160
M:6/4
K:Db
V:1 treble 
V:2 treble 
V:3 bass 
V:4 bass 
V:1
 D2 | [DF]4 [DG]2 [DA]4 D2 | [DG]4 [DB]2 [DA]4 [Fd]2 | [Gc]4 [GB]2 [EG]4 [GB]2 | %4
w: 1.~Be-|hold one day a|wond- rous scene: There|rode a man of|
w: 2.~He’s|pass- ing by, just|as of yore, And|great and small and|
w: 3.~Soon|He is com- ing|back a- gain, A|thou- sand years on|
 [FA]4 [EG]2 [DF]4 [DF]2 | [EA]4 [EA]2 [EB]4 [EB]2 | [Ec]6 [Ae]6 | %7
w: low- ly mien, A-|long the dust- y|way, A-|
w: rich and poor, To-|day their Lord de-|ny, To-|
w: earth to reign; We’ll|see Him by and|by, We’ll|
 (e2 f2) ([_Ge]2 [Fd]2) [Ec]2 [DB]2 | [CA]6- [CA]4 [GA]2 | [Fd]4 [Fc]2 [FB]4 [DF]2 | %10
w: long * the * dust- y|way; * The|peo- ple thronged Him|
w: day * their * Lord de-|ny; * Oh,|make of Him su-|
w: see * Him * by and|by; * All|the re- deemed with|
 [DA]4 [D=G]2 [C_G]4 [CG]2 | [ce]4 [Bd]2 [Ac]4 [GB]2 | [FA]4 [EG]2 [DF]4 [FA]2 | %13
w: as He passed, Palm|branch- es in His|way they cast, And|
w: prem- est choice, And|with up- lift- ed|heart and voice, “Ho-|
w: Him He’ll bring, Who|in their hearts have|crowned Him king, And|
 [GB]4 [Gc]2 [Ad]4 [Be]2 | [Af]4 [Fd]2 !fermata![Ge]4 [Fd]2 | [Fd-]6 [Gd-]6 | [Fd]6 z6 || %17
w: cried, “Ho- san- na|to the King, to-|day!” *||
w: san- na to the|King of kings” still|cry. Crown|Him!|
w: they shall live and|reign with Him on|high. *||
"^Refrain" (z2 z2 [A,D]2 [A,D]2) x8 | (z2 [B,D]2 [B,D]2) (z2 [A,D]2 [A,D]2) | %19
w: ||
w: ||
w: ||
 [Fd]4 [Fc]2 [FB]4 [DF]2 | [FA]4 [=E=G]2 [_E_G]6 | [CE]4 [DF]2 ([EG]2 [=DF]2) [EG]2 | [Ac]6 [GB]6 | %23
w: ||||
w: Crown Him! Crown the|Sav- ior King|of kings; In * your|hearts en-|
w: ||||
 [FA]4 [=E=G]2 [FA]4 [_GB]2 | [FA]6 [DF]6 | [Fd]6 [Ge]6 | [Af]6 [Ge]4 [Ge]2 | %27
w: ||||
w: throne Him, Lord and|Mas- ter|own Him;|Crown Him! Crown|
w: ||||
 [Fd]2 [Fd]2 [Fd]2 [Be]4 [B=e]2 | [=Af]6- [Af]6 | [Be]4 [Bd]2 ([Bd]2 [Ac]2) [GB]2 | %30
w: |||
w: Him! While heav- en ex-|ult- *|ant rings; Crown * the|
w: |||
 [FA]4 [Af]2 !fermata![Aeg]4 [Gc]2 | d12- | [Fd]6 z4 |] %33
w: |||
w: bless- èd Sav- ior|King||
w: |||
V:2
 D2 | x10 D2 | x12 | x12 | x12 | x12 | x12 | =G4 x8 | x12 | x12 | x12 | x12 | x12 | x12 | x12 | %15
 x12 | x12 || [DF]6 (A,2 A,2) [FA]6 | [GB]6 [FA]6 | x12 | x12 | x12 | x12 | x12 | x12 | x12 | x12 | %27
 x12 | x12 | x12 | x12 | F2 F2 F2 G4 =E2 | x10 |] %33
V:3
 [D,F,]2 | [D,A,]4 [D,E,]2 [D,F,]4 [D,F,]2 | [D,B,]4 [D,G,]2 [D,F,]4 [D,A,]2 | %3
 [E,A,]4 [E,A,]2 [A,C]4 [A,C]2 | [D,D]4 [D,A,]2 [D,A,]4 [D,A,]2 | %5
 [C,A,]4 [C,A,]2 [E,=G,]4 [E,G,]2 | A,6 [A,C]6 | [E,B,]4 [E,B,]2 [E,=G,]4 [E,G,]2 | %8
 [A,,A,]6- [A,,A,]4 [C,A,]2 | [D,A,]4 [D,A,]2 [D,A,]4 [D,A,]2 | [F,A,]4 [=E,B,]2 [_E,A,]4 [E,A,]2 | %11
 [A,,A,]4 [A,,A,]2 [A,,A,]4 [A,,A,]2 | A,4 [C,A,]2 [D,A,]4 [D,D]2 | [G,D]4 [E,A,]2 [F,D]4 [G,D]2 | %14
 [A,D]4 [A,D]2 !fermata![A,,A,]4 [D,A,]2 | [D,-A,]6 [D,-B,]6 | [D,A,]6 z6 || [D,,D,]6 [F,,F,]6 x4 | %18
 [G,,G,]6 [F,,F,]6 | ([D,,D,]2 [D,F,A,]2) z2 ([D,,D,]2 [D,F,A,]2) z2 | %20
 ([A,,A,]2 [A,,A,]2) [B,,B,]2 ([C,C]2 [B,,B,]2 [A,,A,]2) | %21
 ([A,,A,]2 [G,A,C]2) z2 ([A,,A,]2 [G,A,C]2) z2 | %22
 ([A,,A,]2 [G,A,C]2 [G,A,C]2) ([A,,A,]2 [G,A,C]2 [G,A,C]2) | %23
 ([D,,D,]2 [F,A,D]2) [F,A,D]2 ([D,,D,]2 [F,A,D]2) [F,A,D]2 | %24
 ([D,,D,]2 [D,F,A,]2 [D,F,A,]2) ([D,,D,]2 [D,F,A,]2 [D,F,A,]2) | %25
 ([D,A,]2 [D,A,]2 [D,A,]2) [A,C]4 [A,C]2 | D2 D2 D2 [A,C]4 [A,C]2 | B,2 B,2 B,2 [G,B,]4 [G,B,]2 | %28
 [F,C]6- [F,C]6 | [G,B,]4 [G,B,]2 (B,2 C2) [G,D]2 | [A,D]4 [A,D]2 !fermata![A,,C]4 [A,,A,]2 | %31
 A,2 A,2 A,2 B,4 G,2 | [D,A,]6 z4 |] %33
V:4
 x2 | x12 | x12 | x12 | x12 | x12 | A,6 x6 | x12 | x12 | x12 | x12 | x12 | A,,2 B,,2 x8 | x12 | %14
 x12 | x12 | x12 || x16 | x12 | x12 | x12 | x12 | x12 | x12 | x12 | x12 | (D2 D2 D2) x6 | %27
 B,2 B,2 B,2 x6 | x12 | x6 G,4 x2 | x12 | D,12- | x10 |] %33

